assets/features/channel/southeast-asia1/QRIS.svg

<svg width="80" height="80" viewBox="0 0 80 80" fill="none" xmlns="http://www.w3.org/2000/svg">
<rect x="0.5" y="0.5" width="79" height="79" rx="7.5" fill="white"/>
<rect x="0.5" y="0.5" width="79" height="79" rx="7.5" stroke="#EEEEEE"/>
<g clip-path="url(#clip0_2497_22873)">
<path d="M65.7059 42.334V40.5551V37.0009H60.3728H56.8168V35.222H65.7059V31.666H56.8168H51.4838V35.222V37.0009V40.5551H56.8168H60.3728V42.334H51.4838V45.89H60.3728H65.7059V42.334Z" fill="#010101"/>
<path d="M49.7066 31.666H46.1506V45.8882H49.7066V31.666Z" fill="#010101"/>
<path d="M30.1515 31.666V35.222H40.8176V37.0009H33.7056H30.1515V40.5551V45.89H33.7056V40.6092L39.0406 45.89H44.3736L38.8091 40.5551H40.8176H44.3736V37.0009V35.222V31.666H40.8176H30.1515Z" fill="#010101"/>
<path d="M19.4835 40.5555H23.0302V37.0088H19.4835V40.5555ZM20.3739 37.8899H22.151V39.6669H20.3739V37.8899Z" fill="#010101"/>
<path d="M17.7064 31.666H14.5947C14.4771 31.6669 14.3645 31.7138 14.2811 31.7967C14.2395 31.838 14.2066 31.8872 14.1842 31.9414C14.1618 31.9955 14.1503 32.0535 14.1504 32.1121V45.4439C14.1503 45.5025 14.1618 45.5605 14.1842 45.6147C14.2066 45.6688 14.2395 45.718 14.2811 45.7593C14.3647 45.8417 14.4773 45.888 14.5947 45.8882H23.0395V42.3415H17.7064V31.666Z" fill="#010101"/>
<path d="M27.9283 31.666H19.4835V35.222H24.8185V40.5551H28.3651V32.1121C28.3662 31.9947 28.3213 31.8815 28.2401 31.7967C28.1567 31.7148 28.0451 31.668 27.9283 31.666Z" fill="#010101"/>
<path d="M28.3744 42.334H24.8184V50.3345H28.3744V42.334Z" fill="#010101"/>
<path d="M19.112 29.667H12.4443C12.3266 29.6675 12.2139 29.7144 12.1307 29.7977C12.0475 29.8809 12.0005 29.9936 12 30.1113V36.779H12.8885V30.9923C12.891 30.876 12.9388 30.7651 13.0218 30.6835C13.1048 30.6019 13.2164 30.556 13.3328 30.5555H19.1195L19.112 29.667Z" fill="#010101"/>
<path d="M67.1114 41.2217V47.0083C67.1109 47.126 67.064 47.2387 66.9808 47.3219C66.8976 47.4052 66.7848 47.4521 66.6672 47.4526H60.8805V48.3337H67.5482C67.6071 48.3344 67.6656 48.3235 67.7202 48.3015C67.7749 48.2795 67.8247 48.247 67.8667 48.2057C67.9087 48.1644 67.9421 48.1151 67.9649 48.0609C67.9878 48.0066 67.9997 47.9483 68 47.8894V41.2217H67.1114Z" fill="#010101"/>
</g>
<defs>
<clipPath id="clip0_2497_22873">
<rect width="56" height="20.6659" fill="white" transform="translate(12 29.667)"/>
</clipPath>
</defs>
</svg>

<svg xmlns="http://www.w3.org/2000/svg" width="80" height="80" fill="none" viewBox="0 0 80 80"><rect width="79" height="79" x=".5" y=".5" fill="#fff" rx="7.5"/><rect width="79" height="79" x=".5" y=".5" stroke="#eee" rx="7.5"/><g fill="#010101" clip-path="url(#a)"><path d="M65.706 42.334v-5.333h-8.889v-1.779h8.889v-3.556H51.484v8.889h8.889v1.779h-8.89v3.556h14.223zM49.707 31.666H46.15v14.222h3.556zm-19.555 0v3.556h10.666v1.779H30.15v8.889h3.555v-5.28l5.335 5.28h5.333l-5.565-5.335h5.565v-8.889zm-10.668 8.89h3.546v-3.547h-3.547zm.89-2.666h1.777v1.777h-1.777z"/><path d="M17.706 31.666h-3.111a.45.45 0 0 0-.445.446v13.332a.445.445 0 0 0 .445.444h8.445v-3.546h-5.334zm10.222 0h-8.445v3.556h5.336v5.333h3.546v-8.443a.45.45 0 0 0-.125-.315.46.46 0 0 0-.312-.131m.446 10.668h-3.556v8h3.556z"/><path d="M19.112 29.667h-6.668a.446.446 0 0 0-.444.444v6.668h.889v-5.787a.447.447 0 0 1 .444-.437h5.786zm47.999 11.555v5.786a.446.446 0 0 1-.444.445H60.88v.88h6.668A.446.446 0 0 0 68 47.89v-6.667z"/></g><defs><clipPath id="a"><path fill="#fff" d="M12 29.667h56v20.666H12z"/></clipPath></defs></svg>
